public/sports/americanfootball.svg

<svg width="128" height="128" viewBox="0 0 128 128" fill="none" xmlns="http://www.w3.org/2000/svg">
<path d="M16.2488 15.9037L15.9175 15.9342L15.8872 16.2655C15.4498 21.0425 14.8231 31.2675 15.9729 43.1595L16.371 43.121L15.9729 43.1595C16.1531 45.0237 16.3739 46.8837 16.6349 48.7383L16.7467 49.5324L17.3138 48.9654L48.9638 17.3201L49.5311 16.753L48.7368 16.6412C42.5606 15.7718 36.0419 15.3323 29.233 15.3323H28.296L28.3155 15.3525C23.094 15.382 18.8601 15.6629 16.2488 15.9037ZM17.4737 52.9271L17.3257 53.0751L17.3629 53.2811C18.3814 58.9237 19.7711 64.2059 21.5227 69.0622C24.9169 78.4721 29.6812 86.2969 35.6921 92.3083L35.975 92.0255L35.6922 92.3084C43.3438 99.9592 53.8568 105.548 66.9161 108.933C69.4422 109.589 72.0472 110.156 74.7212 110.64L74.9273 110.677L75.0753 110.529L110.528 75.0766L110.676 74.9286L110.639 74.7227C109.621 69.0793 108.232 63.7969 106.48 58.9403C103.086 49.5304 98.3235 41.7076 92.3124 35.6967C84.6617 28.046 74.1537 22.4627 61.0952 19.0763L60.9948 19.4635L61.0952 19.0763C58.5656 18.4204 55.9578 17.8528 53.2807 17.3689L53.0747 17.3317L52.9267 17.4796L17.4737 52.9271ZM111.752 112.115L112.083 112.085L112.114 111.753C112.551 106.976 113.178 96.7337 112.028 84.8412C111.848 82.9782 111.627 81.1193 111.367 79.2658L111.255 78.4715L110.688 79.0387L79.0359 110.69L78.4691 111.257L79.2628 111.369C85.4455 112.242 91.9725 112.686 98.7878 112.686C104.422 112.686 108.994 112.369 111.752 112.115ZM13.2716 13.2714C13.4683 13.2466 13.759 13.2114 14.1372 13.1692C14.901 13.0839 16.0217 12.97 17.4462 12.8561C20.2954 12.6282 24.3591 12.4001 29.2125 12.4C47.3323 12.3995 76.3147 15.5777 94.3684 33.6316C108.235 47.4979 113.33 67.8179 114.944 84.729C115.75 93.1768 115.686 100.756 115.421 106.222C115.288 108.955 115.105 111.16 114.955 112.68C114.88 113.44 114.813 114.029 114.765 114.427C114.751 114.544 114.739 114.645 114.728 114.729C114.532 114.753 114.241 114.789 113.863 114.831C113.099 114.916 111.978 115.03 110.554 115.144C107.704 115.372 103.641 115.6 98.7873 115.6C80.6669 115.6 51.6855 112.422 33.6316 94.3684C19.7654 80.5022 14.6704 60.1823 13.0562 43.2711C12.2498 34.8233 12.3138 27.2444 12.5794 21.7776C12.7123 19.0446 12.8954 16.8403 13.0453 15.3203C13.1202 14.5603 13.1868 13.9715 13.2345 13.5732C13.2486 13.4559 13.2611 13.3551 13.2716 13.2714Z" fill="#F0F3FF" stroke="black" stroke-width="0.8"/>
<path d="M77.1089 79.1789L76.8261 78.896L76.5432 79.1789L69.6615 86.0605L67.3987 83.7977L74.2809 76.9156L74.5637 76.6328L74.2809 76.3499L68.6227 70.6904L68.3398 70.4075L68.0569 70.6904L61.172 77.5753L58.9092 75.3127L65.7949 68.4271L66.0777 68.1442L65.7949 67.8614L60.1384 62.2037L59.8556 61.9208L59.5727 62.2036L52.6863 69.09L50.4237 66.8275L57.3104 59.9406L57.5932 59.6578L57.3104 59.3749L51.6529 53.7157L51.3701 53.4327L51.0872 53.7156L44.1978 60.605L41.9352 58.3425L48.8251 51.4526L49.1079 51.1698L48.8252 50.8869L43.1692 45.2294L42.8863 44.9465L42.6034 45.2294L35.713 52.12L33.4502 49.8572L49.8553 33.4524L52.1178 35.715L45.2302 42.6026L44.9474 42.8854L45.2301 43.1683L50.8861 48.8258L51.169 49.1087L51.4519 48.8258L58.3403 41.9374L60.6028 44.2L53.7139 51.0889L53.4311 51.3717L53.7139 51.6545L59.3716 57.3138L59.6545 57.5967L59.9374 57.3138L66.828 50.4229L69.0908 52.6855L62.1994 59.5769L61.9166 59.8597L62.1994 60.1425L67.8559 65.8003L68.1387 66.0832L68.4216 65.8003L75.3138 58.9082L77.5763 61.171L70.6837 68.0636L70.4009 68.3464L70.6836 68.6293L76.3419 74.2888L76.6247 74.5717L76.9076 74.2888L83.8035 67.3932L86.0661 69.6557L79.1699 76.5521L78.8871 76.8349L79.1699 77.1178L84.8261 82.7755L85.109 83.0584L85.3919 82.7756L92.2893 75.8782L94.5521 78.141L78.1475 94.5455L75.8845 92.2827L82.7651 85.4026L83.0479 85.1198L82.7652 84.8369L77.1089 79.1789Z" fill="#F0F3FF" stroke="black" stroke-width="0.8"/>
</svg>

<svg xmlns="http://www.w3.org/2000/svg" width="128" height="128" fill="none"><path fill="#F0F3FF" stroke="#000" stroke-width=".8" d="m16.25 15.9-.33.03-.03.34c-.44 4.77-1.07 15 .08 26.89l.4-.04-.4.04c.18 1.86.4 3.72.66 5.58l.12.8.56-.57 31.65-31.65.57-.57-.8-.1a140.1 140.1 0 0 0-19.5-1.32h-.93l.02.02c-5.23.03-9.46.31-12.07.55Zm1.22 37.03-.14.15.03.2a97.74 97.74 0 0 0 4.16 15.78c3.4 9.41 8.16 17.24 14.17 23.25l.29-.28-.29.28c7.65 7.65 18.17 13.24 31.23 16.62 2.52.66 5.13 1.23 7.8 1.71l.2.04.16-.15 35.45-35.45.15-.15-.04-.2a97.65 97.65 0 0 0-4.16-15.79c-3.4-9.41-8.16-17.23-14.17-23.24-7.65-7.65-18.16-13.24-31.21-16.62l-.1.38.1-.38c-2.53-.66-5.14-1.23-7.82-1.71l-.2-.04-.15.15-35.46 35.45Zm94.28 59.18.33-.03.03-.33c.44-4.77 1.07-15.02-.08-26.9-.18-1.87-.4-3.73-.66-5.58l-.12-.8-.56.57-31.65 31.65-.57.57.8.1c6.18.88 12.7 1.33 19.52 1.33 5.63 0 10.2-.32 12.96-.58ZM13.27 13.27l.87-.1a149.02 149.02 0 0 1 15.08-.77c18.11 0 47.1 3.18 65.15 21.23 13.86 13.87 18.96 34.19 20.57 51.1a151.86 151.86 0 0 1 .02 27.95 81.7 81.7 0 0 1-.2 1.75c0 .11-.02.21-.03.3l-.87.1a148.96 148.96 0 0 1-15.08.77c-18.11 0-47.1-3.18-65.15-21.23-13.86-13.87-18.96-34.19-20.57-51.1a151.71 151.71 0 0 1-.01-27.95 84.43 84.43 0 0 1 .22-2.05Z"/><path fill="#F0F3FF" stroke="#000" stroke-width=".8" d="m77.1 79.18-.27-.28-.29.28-6.88 6.88-2.26-2.26 6.88-6.88.28-.29-.28-.28-5.66-5.66-.28-.28-.28.28-6.89 6.89-2.26-2.27 6.88-6.88.29-.29-.29-.28-5.65-5.66-.28-.28-.29.28-6.88 6.89-2.27-2.26 6.89-6.89.28-.28-.28-.29-5.66-5.65-.28-.29-.28.29-6.9 6.88-2.25-2.26 6.89-6.89.28-.28-.28-.28-5.66-5.66-.28-.28-.29.28-6.89 6.89-2.26-2.26 16.4-16.4 2.27 2.26-6.89 6.88-.28.29.28.28 5.66 5.66.28.28.28-.28 6.89-6.9 2.26 2.27-6.89 6.89-.28.28.28.28 5.66 5.66.28.29.29-.29 6.89-6.89 2.26 2.27-6.9 6.89-.27.28.28.28 5.66 5.66.28.28.28-.28 6.9-6.9 2.26 2.27-6.9 6.9-.28.28.28.28 5.66 5.66.28.28.29-.28 6.9-6.9 2.26 2.27-6.9 6.9-.28.27.28.29 5.66 5.66.28.28.28-.28 6.9-6.9 2.26 2.26-16.4 16.4-2.27-2.26 6.89-6.88.28-.28-.28-.28-5.66-5.66Z"/></svg>
